lib/radiotmp/nrk-hardware-radio-expressive.svg

<svg width="24" height="24" viewBox="0 0 24 24" fill="none" xmlns="http://www.w3.org/2000/svg">
<path fill-rule="evenodd" clip-rule="evenodd" d="M6.047 4L7.29682 1.54615C7.46752 1.21102 7.81182 1 8.18792 1C8.93468 1 9.41798 1.78878 9.07889 2.45411L8.291 4H20C21.6569 4 23 5.34315 23 7V17C23 18.6569 21.6569 20 20 20H4C2.34315 20 1 18.6569 1 17V7C1 5.34315 2.34315 4 4 4H6.047ZM8.5 12C8.5 12.197 8.4612 12.392 8.38582 12.574C8.31044 12.756 8.19995 12.9214 8.06066 13.0607C7.92137 13.1999 7.75601 13.3104 7.57403 13.3858C7.39204 13.4612 7.19698 13.5 7 13.5C6.80302 13.5 6.60796 13.4612 6.42597 13.3858C6.24399 13.3104 6.07863 13.1999 5.93934 13.0607C5.80005 12.9214 5.68956 12.756 5.61418 12.574C5.5388 12.392 5.5 12.197 5.5 12C5.5 11.6022 5.65804 11.2206 5.93934 10.9393C6.22064 10.658 6.60218 10.5 7 10.5C7.39782 10.5 7.77936 10.658 8.06066 10.9393C8.34196 11.2206 8.5 11.6022 8.5 12ZM13 12C13 12.5304 13.2107 13.0391 13.5858 13.4142C13.9609 13.7893 14.4696 14 15 14C15.5304 14 16.0391 13.7893 16.4142 13.4142C16.7893 13.0391 17 12.5304 17 12C17 11.4696 16.7893 10.9609 16.4142 10.5858C16.0391 10.2107 15.5304 10 15 10C14.4696 10 13.9609 10.2107 13.5858 10.5858C13.2107 10.9609 13 11.4696 13 12ZM11 12C11 13.0609 11.4214 14.0783 12.1716 14.8284C12.9217 15.5786 13.9391 16 15 16C16.0609 16 17.0783 15.5786 17.8284 14.8284C18.5786 14.0783 19 13.0609 19 12C19 10.9391 18.5786 9.92172 17.8284 9.17157C17.0783 8.42143 16.0609 8 15 8C13.9391 8 12.9217 8.42143 12.1716 9.17157C11.4214 9.92172 11 10.9391 11 12ZM3 7C3 6.44771 3.44772 6 4 6H21V17C21 17.5523 20.5523 18 20 18H4C3.44772 18 3 17.5523 3 17V7Z" fill="black"/>
</svg>

<svg xmlns="http://www.w3.org/2000/svg" viewBox="0 0 24 24"><path fill="#000" fill-rule="evenodd" d="m6.047 4 1.25-2.454a1 1 0 1 1 1.782.908L8.29 4H20a3 3 0 0 1 3 3v10a3 3 0 0 1-3 3H4a3 3 0 0 1-3-3V7a3 3 0 0 1 3-3h2.047ZM8.5 12a1.5 1.5 0 1 1-3 0 1.5 1.5 0 0 1 3 0Zm4.5 0a2 2 0 1 0 4 0 2 2 0 0 0-4 0Zm-2 0a4 4 0 1 0 8 0 4 4 0 0 0-8 0ZM3 7a1 1 0 0 1 1-1h17v11a1 1 0 0 1-1 1H4a1 1 0 0 1-1-1V7Z" clip-rule="evenodd"/></svg>
